logos/amd.svg

<?xml version="1.0" encoding="UTF-8"?>
<svg width="512px" height="123px" viewBox="0 0 512 123" version="1.1" xmlns="http://www.w3.org/2000/svg" preserveAspectRatio="xMidYMid">
    <title>AMD</title>
    <g>
        <path d="M120.414543,114.001718 L91.868308,114.001718 L83.1835099,93.040939 L35.8385342,93.040939 L27.9232751,114.001718 L0,114.001718 L42.6544518,8.17177212 L73.2161466,8.17177212 L120.414543,114.001718 Z M58.5216147,33.3833381 L42.8376754,74.6086459 L75.4148297,74.6086459 L58.5216147,33.3833381 Z M223.386201,8.17177212 L246.362439,8.17177212 L246.362439,114.001718 L219.978242,114.001718 L219.978242,48.0412253 L191.432007,81.2413398 L187.401088,81.2413398 L158.854853,47.8946464 L158.854853,113.855139 L132.470656,113.855139 L132.470656,8.17177212 L155.446894,8.17177212 L189.416547,47.5281993 L223.386201,8.17177212 Z M313.202405,8.17177212 C351.825938,8.17177212 371.833954,32.2107071 371.833954,61.2333238 C371.833954,91.6484397 352.595477,114.001718 310.380762,114.001718 L266.480389,114.001718 L266.480389,8.17177212 L313.202405,8.17177212 Z M292.864586,94.6166619 L310.087604,94.6166619 C336.61838,94.6166619 344.533639,76.6241054 344.533639,61.0867449 C344.533639,42.7643859 334.749499,27.5568279 309.794446,27.5568279 L292.864586,27.5568279 L292.864586,94.6166619 Z"></path>
        <path d="M424.125966,39.9427426 L424.125966,87.8740338 L472.057257,87.8740338 L437.831091,122.136845 L389.8998,122.136845 L389.8998,74.1689092 L424.125966,39.9427426 Z M512,0 L512,121.110793 L478.726596,87.8373891 L478.726596,33.273404 L424.162611,33.273404 L390.925852,0 L512,0 Z"></path>
    </g>
</svg>

<svg preserveAspectRatio="xMidYMid" viewBox="0 0 512 123" xmlns="http://www.w3.org/2000/svg">
  <path d="M120.415 114.002H91.868L83.184 93.04H35.839L27.923 114H0L42.654 8.172h30.562l47.199 105.83ZM58.522 33.383 42.838 74.61h32.577L58.522 33.383ZM223.386 8.172h22.976v105.83h-26.384v-65.96l-28.546 33.2h-4.03l-28.547-33.347v65.96H132.47V8.172h22.976l33.97 39.356 33.97-39.356Zm89.816 0c38.624 0 58.632 24.039 58.632 53.061 0 30.415-19.239 52.769-61.453 52.769h-43.9V8.172h46.721Zm-20.337 86.445h17.223c26.53 0 34.446-17.993 34.446-33.53 0-18.323-9.785-33.53-34.74-33.53h-16.93v67.06Z"/>
  <path d="M424.126 39.943v47.931h47.931l-34.226 34.263H389.9V74.169l34.226-34.226ZM512 0v121.11l-33.273-33.273V33.273h-54.564L390.926 0H512Z"/>
</svg>
